dist/icons/text-bad.svg

<?xml version="1.0" encoding="utf-8"?>
<!-- Generated by IcoMoon.io -->
<!DOCTYPE svg PUBLIC "-//W3C//DTD SVG 1.1//EN" "http://www.w3.org/Graphics/SVG/1.1/DTD/svg11.dtd">
<svg version="1.1" xmlns="http://www.w3.org/2000/svg" xmlns:xlink="http://www.w3.org/1999/xlink" width="32" height="32" viewBox="0 0 32 32">
<path d="M18.5 16.8l-0.2 0.3v9.2h-12.5v-19.7h8.9l-2.1-2.3-1.5-1.6h-4.7c-1.6 0-3 1.3-3 3v23.3c0 1.6 1.3 3 3 3h11.3c1.6 0 3-1.3 3-3v-14.4l-2.2 2.2zM12 30.8c-1.2 0-2.1-0.7-2.1-1.5s0.9-1.5 2.1-1.5c1.2 0 2.1 0.7 2.1 1.5s-1 1.5-2.1 1.5z"></path>
<path d="M21.4 10.4l4.7 4.8 2.6-2.7-4.6-4.9 4.6-4.8-2.6-2.8-4.7 4.9-4.6-4.9-2.6 2.8 4.6 4.8-4.6 4.9 2.6 2.7z"></path>
</svg>

<svg xmlns="http://www.w3.org/2000/svg" width="32" height="32" viewBox="0 0 32 32"><path d="M18.5 16.8l-.2.3v9.2H5.8V6.6h8.9l-2.1-2.3-1.5-1.6H6.4c-1.6 0-3 1.3-3 3V29c0 1.6 1.3 3 3 3h11.3c1.6 0 3-1.3 3-3V14.6l-2.2 2.2zm-6.5 14c-1.2 0-2.1-.7-2.1-1.5s.9-1.5 2.1-1.5c1.2 0 2.1.7 2.1 1.5s-1 1.5-2.1 1.5z"/><path d="M21.4 10.4l4.7 4.8 2.6-2.7-4.6-4.9 4.6-4.8L26.1 0l-4.7 4.9L16.8 0l-2.6 2.8 4.6 4.8-4.6 4.9 2.6 2.7z"/></svg>
